!!!COM: Beethoven, Ludwig van
!!!CDT: 1770///-1827///
!!!OTL: Piano Sonata no. 17 in D minor
!!!OTP: tempest
!!!OPS: 31
!!!ONM: 2
!!!OMV: 2
!!!OMD: Adagio
!!!AGN: Sonata form
**kern	**kern	**dynam
*staff2	*staff1	*staff1/2
*clefF4	*clefF4	*clefF4
*k[b-e-]	*k[b-e-]	*k[b-e-]
*B-:	*B-:	*B-:
*M3/4	*M3/4	*M3/4
*MM60	*MM60	*MM60
=1-	=1-	=1-
2.BBB-/ 2.FF/ 2.BB-/	2.D\ 2.F\ 2.B-\	p
*	*clefG2	*clefG2
=2	=2	=2
4r	(8..dd\L	.
.	32ee-\Jkk)	.
4r	4ff\	.
*	*clefF4	*clefF4
4BBB-/ 4FF/ 4BB-/	4D\ 4F\ 4B-\	.
=3	=3	=3
2.CC/ 2.FF/ 2.C/	2.E-\ 2.F\ 2.A\	.
*	*clefG2	*clefG2
=4	=4	=4
4r	(8..aa\L	.
.	32bb-\Jkk)	.
4r	4ccc\	.
4AA\ 4F\	4c/ 4e-/	.
=5	=5	=5
2.BB-\ 2.F\	2.B-/ 2.d/	<
=6	=6	=6
.	(d16q/LL	.
.	fq/	.
.	e-q/	.
.	dq/	.
.	e-q/	.
.	fq/	.
.	gq/	.
.	aq/	.
.	b-q/	.
.	ccq/JJ)	.
4r	(8..dd\L	.
.	32ee-\Jkk)	.
4r	4ff\	.
4D\ 4Bn\	4a-\ 4ff\	.
=7	=7	=7
*^	*^	*
4Bn/	4.E-\	(4ff/	4.g\	p
8c/L	.	8ee-/L	.	.
8d/	(8F\L	8dd/	8b-\L	<
8e-/	8G'\	(8cc'/)	8b-\	.
8en/J	8G'\J)	8cc'/J	8b-\J)	>
=8	=8	=8	=8	=8
(4en/	4.F\	8cc/L	(4b-\	.
.	.	bnq/LL	.	.
.	.	ccq/JJ	.	.
.	.	&(16dd/L&)	.	.
.	.	16cc/JJ	.	.
8f/)	.	8cc/	8an\)	.
8r	8r	4r	8r	.
4r	4r	.	16r	.
*	*	*clefF4	*clefF4	*clefF4
.	.	.	(16F\LL	p
.	.	8r	16E-\ 16G\	.
.	.	.	16C\ 16A\JJ)	.
*v	*v	*	*	*
=9	=9	=9	=9
2.BBB-/	2.B-/	8..BB-\ (8..D\L	.
.	.	32C\ 32E-\Jkk)	.
.	.	4D\ 4F\	.
.	.	4D\ 4F\	.
*	*v	*v	*
*	*clefG2	*clefG2
=10	=10	=10
2BB-/ 2D/ 2F/	([8dd\L	.
.	16.dd\L]	.
.	32ee-\JJk	.
.	4ff\)	.
*	*clefF4	*clefF4
4BBB-/ 4BB-/	4D\ 4F\ 4B-\	.
=11	=11	=11
*	*^	*
2.FFF/ 2.FF/	2.A/	8..C\ (8..E-\L	.
.	.	32D\ 32F\Jkk)	.
.	.	4E-\ 4G-\	.
.	.	4E-\ 4G-\	.
*	*v	*v	*
*	*clefG2	*clefG2
=12	=12	=12
4FF\ 4E-\ 4G-\	([8ccc\L	.
.	16.ccc\L]	.
.	32ddd\JJk	.
4r	4eee-\)	.
4B-\ 4c\	4e-/ 4g-/	.
=13	=13	=13
*	*^	*
8..A\ (8..c\L	2f/	8e-\	.
.	.	8r	.
32Bn\ 32d\Jkk)	.	.	.
4c\ 4e-\	.	4r	.
4c\ 4e-\	4r	4r	.
*	*v	*v	*
=14	=14	=14
*^	*	*
4c\	2F/ 2e-/	([8ccc\L	.
.	.	16.ccc\L]	.
.	.	32ddd\JJk	.
4A\	.	4eee-\)	.
4F#\ 4c\ 4e-\	4r	4a\ (4ee-\	.
*v	*v	*	*
=15	=15	=15
*	*^	*
8G\ 8B-\ &(8d\&)	4r	8b-\ 8dd\)	.
8r	.	8r	.
4r	2gg/	4r	.
8En'\ 8B-'\ 8d-'\	.	8g'\ 8b-'\ 8dd-'\	f
8r	.	8r	.
=16	=16	=16	=16
4r	2ff/	4r	p
8F'\ 8B-'\ 8dn'\	.	8f'\ 8b-'\ 8ddn'\	.
8r	.	8r	.
8FF'\ 8F'\	4r	8c'/ 8e-'/ 8a'/	.
8r	.	8r	.
*	*v	*v	*
=17	=17	=17
8BBB-/ 8BB-/	8B-'/ 8d'/ 8b-'/	.
16r	8r	.
(48BB-/LLL	.	.
48BBB-/	.	.
48BB-/JJJ	.	.
8BBB-'/)	4r	.
16r	.	.
(48BB-/LLL	.	.
48BBB-/	.	.
48BB-/JJJ	.	.
8BBB-'/)	4r	.
16r	.	.
(48BB-/LLL	.	.
48BBB-/	.	.
48BB-/JJJ)	.	.
*	*clefF4	*clefF4
=18	=18	=18
8BBB-'/	4G\ 4B-\ (4e-\	p
8r	.	.
4r	4F\ 4B-\ 4d\	.
4r	4En\ 4B-\ 4c#\)	.
=19	=19	=19
8r	4En\ [4B-\ (4c#\	.
16r	.	.
48BB-/LLL	.	.
48BBB-/	.	.
48BB-/JJJ	.	.
8BBB-'/	8F\ 8B-\] 8d\)	.
16r	8r	.
48BB-/LLL	.	.
48BBB-/	.	.
48BB-/JJJ	.	.
8BBB-'/	4r	.
16r	.	.
48BB-/LLL	.	.
48BBB-/	.	.
48BB-/JJJ	.	.
=20	=20	=20
*	*^	*
8BBB-'/	([4cn/	2E-\ 2G\	.
8r	.	.	.
4r	8c/L]	.	.
.	8e-/	.	.
4r	8c/	4E-\ 4G-\	.
.	8A/J)	.	.
*	*v	*v	*
=21	=21	=21
8r	4E-'\ 4G-'\ 4A'\ (4c'\	.
16r	.	.
(48BB-/LLL	.	.
48BBB-/	.	.
48BB-/JJJ	.	.
8BBB-'/)	&(8D\&) 8F\ 8B-\)	.
16r	8r	.
(48BB-/LLL	.	.
48BBB-/	.	.
48BB-/JJJ	.	.
8BBB-'/)	4r	.
16r	.	.
(48BB-/LLL	.	.
48BBB-/	.	.
48BB-/JJJ)	.	.
*	*clefG2	*clefG2
=22	=22	=22
8BBB-'/	(4d/ 4b-/	<
8r	.	.
4r	4B-/ 4d/ 4g/	.
4r	4A/) 4d/ 4f/	.
=23	=23	=23
8r	4.G/ 4.c/ 4.en/	.
16r	.	.
(48C/LLL	.	.
48CC/	.	.
48C/JJJ	.	.
8CC'/)	.	.
16r	8G/ 8c/ (8e/L	.
*clefG2	*	*
(48ccc\LLL	.	.
48cc\	.	.
48ccc\JJJ)	.	.
8cc'\	8A/ 8c/ 8f/	.
8r	8B-/ 8c/ 8g/J)	.
*clefF4	*	*
=24	=24	=24
8r	8.B-/ 8.c/ 8.g/L	.
16r	.	.
48C/LLL	16G#/ 16c/ 16en/Jk	.
48CC/	.	.
48C/JJJ	.	.
8CC'/	8A'/ 8c'/ 8f'/	.
16r	8A/ 8c/ (8f/L	.
*clefG2	*	*
48ccc\LLL	.	.
48cc\	.	.
48ccc\JJJ	.	.
8cc'\	8c/ 8en/ 8gn/	<
8r	8c/ 8f/ 8a/J)	.
*clefF4	*	*
=25	=25	=25
*	*^	*
8r	8.f/ 8.a/L	4c\	.
16r	.	.	.
48C/LLL	16d#/ 16f#/Jk	.	.
48CC/	.	.	.
48C/JJJ	.	.	.
8CC'/	8c'/ 8en'/ 8g'/	2r	.
16r	8c/ 8e/ (8g/L	.	.
*clefG2	*	*	*
48ccc\LLL	.	.	.
48cc\	.	.	.
48ccc\JJJ	.	.	.
8cc'\	8c/ 8fn/ 8a/	.	.
8r	8c/ 8g/ 8b-/J)	.	.
*clefF4	*	*	*
=26	=26	=26	=26
8r	8.g/ (8.b-/L	4c\	.
16r	.	.	.
48C/LLL	16en/ 16g#/Jk)	.	.
48CC/	.	.	.
48C/JJJ	.	.	.
8CC'/	8c'/ 8f'/ 8a'/	2r	.
16r	8c/ 8f/ (8a/L	.	.
*clefG2	*	*	*
48ccc\LLL	.	.	.
48cc\	.	.	.
48ccc\JJJ	.	.	.
8cc'\	8d/ 8f/ 8a-/ 8bn/	.	f
16r	8d'/ 8f'/ 8a-'/ 8b'/J)	.	.
48ccc\LLL	.	.	.
48cc\	.	.	.
48ccc\JJJ	.	.	.
*clefF4	*	*	*
*	*v	*v	*
=27	=27	=27
8r	(8en/ 8g/ 8cc/	p
16r	4c/) 4e/ 4g/	<
(32C/LLL	.	.
&(32CC/JJJ&)	.	.
8C'/)	.	.
16r	8c/ 8e/ 8g/L	>
*clefG2	*	*
32ccc\LLL	.	.
32cc\JJJ	.	.
8ccc'\	8d/ 8f/ 8bn/	.
8r	8d/ 8f/ 8g/J	.
*clefF4	*	*
=28	=28	=28
8r	8c/ 8en/ (8cc/	<
16r	4c/ 4e/ 4g/)	.
(32C/LLL	.	.
32CC/JJJ)	.	.
8C'/	.	.
16r	8c/ 8e/ (8g/L	>
*clefG2	*	*
32ccc\LLL	.	.
32cc\JJJ	.	.
8ccc'\	8d/ 8f/ 8bn/	.
8r	8d/ 8f/ 8g/J)	.
*clefF4	*	*
=29	=29	=29
8r	8c/ 8en/ (8cc/	.
16r	4c/ 4e/ 4g/)	.
32C/LLL	.	.
32CC/JJJ	.	.
8C'/	.	.
*	*clefF4	*clefF4
16r	4G\ 4c\ 4en\	>
(32C/LLL	.	.
32CC/JJJ)	.	.
8C'/	.	.
16r	[8En\ [8G\ [8c\	.
32C/LLL	.	.
32CC/JJJ	.	.
=30	=30	=30
*^	*	*
4.r	8C'/	8E\] 8G\] 8c\]	<
.	(8c\L	8r	.
.	8Bn\	4r	.
4c/	8B-\	.	.
*	*	*clefG2	*clefG2
.	8A\	16r	.
.	.	32d'/LLL	.
.	.	32en'/JJJ	.
8B-/	8G\J)	32f'/LLL	<
.	.	32g'/	.
.	.	32a'/	.
.	.	32b-'/JJJ	.
*v	*v	*	*
=31	=31	=31
*	*^	*
8FF/	([4cc/	4r	p
(8F\L	.	.	.
8A\ 8c\	8..cc/L]	4f\	.
8F\	.	.	.
.	32a/Jkk	.	.
8B-\ 8d\	8..ff/L	4f\	.
8F\J)	.	.	.
.	32dd/Jkk)	.	.
=32	=32	=32	=32
8A\ (8c\L	([4cc/	4r	.
8F\	.	.	.
8A\ 8c\	8..cc/L]	4f\	.
8F\	.	.	.
.	32a/Jkk	.	.
8D\	8..b-/L	8f\L	.
8BB-\J)	.	&(8d\J&)	.
.	32g/Jkk)	.	.
=33	=33	=33	=33
8CC/	(2f/	8r	.
(8C\L	.	8A\	.
8F\ 8A\	.	4c\	.
8C\	.	.	.
8En\ 8G\	16a/LL	4c\	.
.	16g/	.	.
8C\J)	16f/	.	.
.	16g/JJ)	.	.
=34	=34	=34	=34
*^	*	*	*
(8En/L	4.FF\	(8..g/L	[4c\	.
8C/	.	.	.	.
.	.	32g#/Jkk	.	.
8F/J)	.	8a/)	8c\]	.
(8AA/L	4.r	8r	4.r	.
8BB-/	.	32r	.	.
.	.	32c'/LLL	.	<
.	.	32d'/	.	.
.	.	32en'/	.	.
8GG/J)	.	32f'/	.	.
.	.	32g#'/	.	.
.	.	32a'/	.	.
.	.	32b-'/JJJ	.	.
*v	*v	*	*	*
=35	=35	=35	=35
8FF/	([4cc/	8.r	p
(8F\L	.	.	.
.	.	16en\	.
8A\ 8c\	8..cc/L]	&(2f\&)	.
8F\	.	.	.
.	32a/Jkk	.	.
8B-\ 8d\	8..ff/L	.	.
8F\J)	.	.	.
.	32ee-/Jkk)	.	.
=36	=36	=36	=36
8A\ (8c\L	([4cc/	8.r	.
8F\	.	.	.
.	.	16en\	.
8A\ 8c\	8..cc/L]	&(4f\&)	.
8F\	.	.	.
.	32a/Jkk	.	.
8D\	16cc/LK	8f\L	.
.	8b-/	.	.
8BB-\J)	.	&(8d\J&)	.
.	16g/Jk)	.	.
*	*clefF4	*clefF4	*
=37	=37	=37	=37
2C/	(2f/	8A\L	<
.	.	8F\ 8A\	.
.	.	8A\ 8c\	.
.	.	8F\ 8A\	.
4CC/	4c/)	8En\ 8G\	.
.	.	&(8C\&) 8E\J	.
=38	=38	=38	=38
8FFF/ 8FF/	8F/ 8A/	8C\	p
16r	8r	8r	p
48FF/LLL	.	.	.
48FFF/	.	.	.
48FF/JJJ	.	.	.
(8FFF''/	2r	4r	.
16r	.	.	.
48FF/LLL	.	.	.
48FFF/	.	.	.
48FF/JJJ	.	.	.
8FFF'/)	.	8r	.
*	*clefG2	*clefG2	*clefG2
8r	.	8f/	p
=39	=39	=39	=39
8r	(4f/	4r	.
16r	.	.	.
48FF/LLL	.	.	.
48FFF/	.	.	.
48FF/JJJ	.	.	.
8FFF'/	4.g-/)	2A\ 2c\ 2e-\	<
16r	.	.	.
48FF/LLL	.	.	.
48FFF/	.	.	.
48FF/JJJ	.	.	.
8FFF'/	.	.	.
8r	8g-/	.	.
=40	=40	=40	=40
8r	([4g-/	4r	.
16r	.	.	.
(48FF/LLL	.	.	.
48FFF/	.	.	.
48FF/JJJ	.	.	.
(8FFF'/)	4.a/)	2c\ 2e-\ 2g-\]	.
16r	.	.	.
48FF/LLL	.	.	.
48FFF/	.	.	.
48FF/JJJ	.	.	.
8FFF'/)	.	.	.
8r	8a/	.	.
=41	=41	=41	=41
8r	([4a/	4r	.
16r	.	.	.
(48FF/LLL	.	.	.
48FFF/	.	.	.
48FF/JJJ	.	.	.
8FFF'/)	4.cc/)	2e-\ 2g-\ 2a\]	.
16r	.	.	.
48FF/LLL	.	.	.
48FFF/	.	.	.
48FF/JJJ	.	.	.
8FFF'/	.	.	.
8r	8cc/	.	.
*	*v	*v	*
=42	=42	=42
8r	(8cc\L	.
16r	[8ee-\J)	.
48A\ (48c\LLL	.	.
48F\	.	.
48A\ 48c\JJJ)	.	.
8F'\	(16ee-\LL]	.
.	32dd\L	.
.	32cc\JJJ	.
8r	32b-/LLL	.
.	32a/	.
.	32g/	.
.	32f/JJJ	.
4r	32en/LLL	.
.	32e-/	.
.	32d/	.
.	32c/JJJ	.
.	32B-/LLL	.
.	32A/	.
.	32e-/	.
.	32A/JJJ)	.
*	*clefF4	*clefF4
=43	=43	=43
*	*^	*
2.BBB-/ 2.BB-/	2.D/ 2.B-/	(8..D\L	p
.	.	32E-\Jkk	.
.	.	4F\	.
.	.	4F\)	.
*	*v	*v	*
*	*clefG2	*clefG2
=44	=44	=44
2BB-\ 2D\ 2F\	([8dd\L	.
.	16.dd\L]	.
.	32ee-\JJk	.
.	4ff\)	.
*	*clefF4	*clefF4
4BBB-/ 4FF/ 4BB-/	4D\ 4B-\	.
=45	=45	=45
*	*^	*
2.CC/ 2.FF/ 2.C/	2.E-/ 2.A/	(8..E-\L	.
.	.	32F\Jkk	.
.	.	4G-\	.
.	.	4G-\)	.
*	*v	*v	*
*	*clefG2	*clefG2
=46	=46	=46
*^	*	*
2c/ 2e-/	(4G-\	([8aa\L	.
.	.	16.aa\L]	.
.	.	32bb-\JJk	.
.	4F\)	4ccc\)	.
4r	4AA\ 4F\	4e-/	.
=47	=47	=47	=47
(8..A-/L	2.BBB-\ 2.BB-\ 2.F\	2.d/	.
32B-/Jkk	.	.	.
4c-/	.	.	.
4c-/)	.	.	.
*v	*v	*	*
*clefG2	*	*
=48	=48	=48
*^	*	*
2f/ 2a-/	(4c-\	([8dd\L	<
.	.	16.dd\L]	.
.	.	32ee-\JJk	.
.	4B-\)	4ff\)	.
*v	*v	*	*
*clefF4	*	*
*^	*	*
4r	4D\ 4B-\	4a-\ 4ff\	.
=49	=49	=49	=49
*	*	*^	*
(8B-/L	4.E-\	(4ff/	4.g\	p
8Bn/	.	.	.	.
8c/)	.	8ee-/L	.	<
8d/	8F\L	8dd/)	8b-\L	.
8e-/	(8G'\	(8cc'/	8b-\	.
8en/J	8G'\J)	8cc'/J	8b-\J)	.
=50	=50	=50	=50	=50
(4en/	4.F\	8cc/L	(4b-\	>
.	.	16dd/L	.	.
.	.	16cc/JJ	.	.
4f/)	.	8cc/	8a\)	.
.	8r	4.r	8r	.
*	*	*clefF4	*clefF4	*clefF4
4r	4r	.	32r	.
.	.	.	(32F\LLL	p
.	.	.	32G\	.
.	.	.	32F\	.
.	.	.	32En\	.
.	.	.	32F\	.
.	.	.	32E-\ 32G\	.
.	.	.	32C\ 32A\JJJ)	.
*v	*v	*	*	*
=51	=51	=51	=51
8BBB-'/	2.B-/	8..BB-\ (8..D\L	.
8r	.	.	.
.	.	32C\ 32E-\Jkk	.
*clefG2	*	*	*
32r	.	4D\ 4F\)	.
32bb-\LLL	.	.	.
32ddd\	.	.	.
32bb-\	.	.	.
32ff\	.	.	.
32bb-\	.	.	.
32dd\	.	.	.
32ff\JJJ	.	.	.
32b-/LLL	.	4D\ 4F\	.
32dd/	.	.	.
32f/	.	.	.
32b-/	.	.	.
32d/	.	.	.
32f/	.	.	.
32B-/	.	.	.
32d/JJJ	.	.	.
*clefF4	*	*	*
*	*v	*v	*
*	*clefG2	*clefG2
=52	=52	=52
32F\LLL	([8dd\L	.
32B-\	.	.
32D\	.	.
32F\	.	.
32BB-\	16.dd\L]	.
32D\	.	.
32FF\	.	.
32BB-\JJJ	32ee-\JJk	.
32DD/LLL	4ff\)	.
32BBB-/	.	.
32DD/	.	.
32FF/	.	.
32BB-/	.	.
32DD/	.	.
32FF/	.	.
32BB-/JJJ	.	.
32D/LLL	4B-/	.
32BB-/	.	.
32FF/	.	.
32DD/	.	.
32BB-/	.	.
32FF/	.	.
32DD/	.	.
32BBB-/JJJ	.	.
*	*clefF4	*clefF4
=53	=53	=53
*	*^	*
8FFF'/	(2.A/	8..C\ 8..E-\L	.
8r	.	.	.
.	.	32D\ 32F\Jkk	.
*clefG2	*	*	*
32r	.	4E-\ 4G-\)	.
(32ccc\LLL	.	.	.
32eee-\	.	.	.
32ccc\	.	.	.
32aa\	.	.	.
32ccc\	.	.	.
32gg-\	.	.	.
32aa\JJJ	.	.	.
32ee-\LLL	.	4E-\ 4G-\	<
32gg-\	.	.	.
32cc\	.	.	.
32ee-\	.	.	.
32a\	.	.	.
32cc\	.	.	.
32g-\	.	.	.
32a\JJJ	.	.	.
*clefF4	*	*	*
*	*v	*v	*
*	*clefG2	*clefG2
=54	=54	=54
32e-\LLL	[8ccc\L	.
32g-\	.	.
32c\	.	.
32e-\	.	.
32A\	16.ccc\L]	.
32c\	.	.
32G-\	.	.
32A\JJJ	32ddd\JJk	.
32C\LLL	&(4eee-\&)	.
32G-\	.	.
32E-\	.	.
32A\	.	.
32G-\	.	.
32c\	.	.
32A\	.	.
32G-\JJJ	.	.
32r	4c/ 4e-/ 4g-/	.
32E-\LLL	.	.
32BB-\	.	.
32G-\	.	.
32E-\	.	.
32B-\	.	.
32G-\	.	.
32E-\JJJ)	.	.
=55	=55	=55
*	*^	*
8AA/	2f/	8c\ (8e-\L	.
8r	.	16.A\ 16.c\L	.
.	.	32Bn\ &(32d\JJk&)	.
*clefG2	*	*	*
32r	.	4c\ 4e-\	.
32ccc\LLL	.	.	.
32eee-\	.	.	.
32ccc\	.	.	.
32aa\	.	.	.
32ccc\	.	.	.
32ee-\	.	.	.
32aa\JJJ	.	.	.
32cc\LLL	8f/)	8c\ 8e-\	.
32ee-\	.	.	.
32a\	.	.	.
32cc\	.	.	.
32e-\	8r	16r	.
32a\	.	.	.
32c\	.	16ccc\	.
32e-\JJJ	.	.	.
*clefF4	*	*	*
*	*v	*v	*
=56	=56	=56
32A\LLL	([8ccc\L	.
32c\	.	.
32F\	.	.
32A\	.	.
32C\	16.ccc\L]	.
32F\	.	.
32AA\	.	.
32C\JJJ	32ddd\JJk	.
32FF/LLL	4eee-\)	.
32AA/	.	.
32CC/	.	.
32FF/	.	.
32AAA/	.	.
32CC/	.	.
32FFF/	.	.
32AAA/JJJ	.	.
32r	4a\ 4cc\ 4ee-\	.
(32FFF#/LLL	.	.
32AAA/	.	.
32CC/)	.	.
32FF#'/	.	.
32AA'/	.	.
32C'/	.	.
32F#'/JJJ	.	.
=57	=57	=57
*	*^	*
32r	4r	8b-\ 8dd\	.
(32GGG/LLL	.	.	.
32BBB-/	.	.	.
32DD/	.	.	.
32GG'/)	.	8r	.
32BB-'/	.	.	.
32D'/	.	.	.
32G'/JJJ	.	.	.
32r	2gg/	4r	f
(32EEn\LLL	.	.	.
32GG\	.	.	.
32BB-\	.	.	.
32En\	.	.	.
32G\	.	.	.
32B-\	.	.	.
32G\JJJ)	.	.	.
32d-'\LLL	.	8g'\ 8b-'\ 8dd-'\	.
32B-'\	.	.	.
32G'\	.	.	.
32E'\	.	.	.
32D-'\	.	8r	.
32BB-'\	.	.	.
32GG'\	.	.	.
32EE'\JJJ	.	.	.
=58	=58	=58	=58
32r	2ff/	4r	p
(32FF/LLL	.	.	.
32BB-/	.	.	.
32Dn/	.	.	.
32F/	.	.	.
32D/	.	.	.
32BB-/	.	.	.
32FF/JJJ)	.	.	.
32r	.	8f'\ 8b-'\ 8ddn'\	.
(32FF/LLL	.	.	.
32BB-/	.	.	.
32D/	.	.	.
32F/	.	8r	.
32D/	.	.	.
32BB-/	.	.	.
32FF/JJJ)	.	.	.
(32E-'/LLL	4r	8c'/ 8e-'/ 8f'/ 8a'/	.
32C'/	.	.	.
32AA'/	.	.	.
32FF'/	.	.	.
32EE-'/	.	8r	.
32CC'/	.	.	.
32AAA'/	.	.	.
32FFF'/JJJ)	.	.	.
*	*v	*v	*
=59	=59	=59
8BBB-'/	8B-'/ 8d'/ 8f'/ 8b-'/	.
16r	8r	pp
(48BB-/LLL	.	.
48BBB-/	.	.
48BB-/JJJ	.	.
8BBB-'/)	4r	.
16r	.	.
(48BB-/LLL	.	.
48BBB-/	.	.
48BB-/JJJ	.	.
8BBB-'/)	4r	.
16r	.	.
(48BB-/LLL	.	.
48BBB-/	.	.
48BB-/JJJ)	.	.
*	*clefF4	*clefF4
=60	=60	=60
8BBB-'/	4A-\ 4B-\ (4f\	p
8r	.	.
4r	4G\ 4B-\ 4e-\	.
4r	4F#\ 4B-\ 4d\)	.
=61	=61	=61
8r	4F#\ 4B-\ (4d\	.
16r	.	.
(48BB-/LLL	.	.
48BBB-/	.	.
48BB-/JJJ	.	.
8BBB-'/)	8G\ 8B-\ 8e-\)	.
16r	8r	.
(48BB-/LLL	.	.
48BBB-/	.	.
48BB-/JJJ	.	.
8BBB-'/)	4r	.
16r	.	.
(48BB-/LLL	.	.
48BBB-/	.	.
48BB-/JJJ)	.	.
*	*clefG2	*clefG2
=62	=62	=62
8BBB-'/	4B-/ 4fn/ (4a-/	.
8r	.	.
4r	4B-/ 4e-/ 4g/	.
4r	4B-/ 4d/ 4f#/)	.
=63	=63	=63
*	*^	*
8r	4d/ (4f#/	[2B-\	.
16r	.	.	.
(48E-/LLL	.	.	.
48EE-/	.	.	.
48E-/JJJ	.	.	.
8EE-'/)	[4e-/ [4g/)	.	.
16r	.	.	.
48E-/LLL	.	.	.
48EE-/	.	.	.
48E-/JJJ	.	.	.
8EE-'/	8e-/] 8g/L]	8B-\]	.
16r	8g/J	8r	.
48E-/LLL	.	.	.
48EE-/	.	.	.
48E-/JJJ	.	.	.
*	*v	*v	*
=64	=64	=64
8EE-'/	(4g/ 4ee-/	<
8r	.	.
4r	4e-/ 4g/ 4cc/	.
4r	4d/) 4g/ 4b-/	.
=65	=65	=65
8r	4.c/ 4.f/ 4.a/	p
16r	.	.
(48F/LLL	.	.
48FF/	.	.
48F/JJJ	.	.
8FF'/)	.	.
*clefG2	*	*
16r	8c/ 8f/ (8a/L	.
(48fff\LLL	.	.
48ff\	.	.
48fff\JJJ)	.	.
8ff'\	8d/ 8f/ 8b-/	.
8r	8e-/ 8f/ 8cc/J)	.
*clefF4	*	*
=66	=66	=66
*	*^	*
8r	8.e-/ (8.cc/L	4f\	.
16r	.	.	.
(48F/LLL	16c#/ 16a/Jk	.	.
48FF/	.	.	.
48F/JJJ	.	.	.
8FF'/)	8d'/ 8f'/ 8b-'/)	2r	.
*clefG2	*	*	*
16r	8d/ 8f/ (8b-/L	.	.
(48fff\LLL	.	.	.
48ff\	.	.	.
48fff\JJJ)	.	.	.
8ff'\	8f/ 8a/ 8ccn/	.	<
8r	8f/ 8b-/ 8dd/J)	.	.
*clefF4	*	*	*
=67	=67	=67	=67
8r	8.b-/ 8.dd/L	[4f\	.
16r	.	.	.
48F/LLL	16g#/ 16bn/Jk	.	.
48FF/	.	.	.
48F/JJJ	.	.	.
8FF'/	8a'/ 8cc'/	8f\]	.
*clefG2	*	*	*
16r	8f/ 8a/ (8cc/L	4.r	.
(48fff\LLL	.	.	.
48ff\	.	.	.
48fff\JJJ)	.	.	.
8ff'\	8f/ 8b-/ 8dd/	.	.
8r	8f/ 8cc/ 8ee-/J)	.	.
*clefF4	*	*	*
=68	=68	=68	=68
8r	8.cc/ (8.ee-/L	[4f\	.
16r	.	.	.
(48F/LLL	16a/ 16cc#/Jk	.	.
48FF/	.	.	.
48F/JJJ	.	.	.
8FF'/)	8b-'/ 8dd'/)	8f\]	.
*clefG2	*	*	*
16r	8f/ 8b-/ (8dd/L	4.r	.
(48fff\LLL	.	.	.
48ff\	.	.	.
48fff\JJJ)	.	.	.
8ff'\	8g/ 8b-/ 8dd-/ 8een/	.	.
16r	8g/ 8b-/ 8dd-/ 8ee/J)	.	.
(48fff\LLL	.	.	.
48ff\	.	.	.
48fff\JJJ)	.	.	.
*clefF4	*	*	*
*	*v	*v	*
=69	=69	=69
8r	8a\ 8cc\ (8ff\	p
16r	4f/ 4a/ 4cc/)	p
32F\LLL	.	.
32FF\JJJ	.	.
8F'\	.	.
*clefG2	*	*
16r	8f/ 8a/ (8cc/L	.
32fff\LLL	.	.
32ff\JJJ	.	.
8fff'\	8g/ 8b-/ 8een/	.
8r	8g/ 8b-/ 8cc/J)	.
*clefF4	*	*
=70	=70	=70
8r	8f/ 8a/ (8ff/	p
16r	4f/ 4a/ 4cc/)	.
32F\LLL	.	.
32FF\JJJ	.	.
8F'\	.	.
*clefG2	*	*
16r	8f/ 8a/ (8cc/L	.
(32fff\LLL	.	.
32ff\JJJ)	.	.
8fff'\	8g/ 8b-/ 8een/	.
8r	8g/ 8b-/ 8cc/J)	.
*clefF4	*	*
=71	=71	=71
8r	8f/ 8a/ (8ff/	.
16r	4f/ 4a/ 4cc/	.
32F\LLL	.	.
32FF\JJJ	.	.
8F'\	.	.
16r	4c/ 4f/ 4a/	.
32F\LLL	.	.
32FF\JJJ	.	.
8F'\	.	.
16r	[8A/ [8c/ [8f/)	.
32F\LLL	.	.
32FF\JJJ	.	.
=72	=72	=72
*^	*	*
4.r	8F'\	8A/] 8c/] 8f/]	<
.	(8f\L	8r	.
.	8en\	4r	.
4f/	8e-\	.	.
.	8d\	16r	.
.	.	32g'\LLL	.
.	.	32a'\JJJ	.
8e-/)	8c\J	32b-'\LLL	.
.	.	32cc'\	.
.	.	32dd'\	.
.	.	32ee-'\JJJ	.
*v	*v	*	*
=73	=73	=73
*	*^	*
8BB-'/	[4ff/	4r	.
*clefG2	*	*	*
(8B-/L	.	.	.
8d/ 8f/	(8..ff/L]	4b-\	p
8B-/	.	.	.
.	32dd/Jkk)	.	.
8e-/ 8g/	(8..bb-/L	4b-\	.
8B-/J)	.	.	.
.	32gg/Jkk)	.	.
=74	=74	=74	=74
(8d/ 8f/L	[4ff/	4r	.
8B-/	.	.	.
8d/ 8f/	(8..ff/L]	4b-\	.
8B-/J)	.	.	.
.	32dd/Jkk	.	.
*clefF4	*	*	*
8G\L	8..ee-/L)	8b-\L	.
8E-\J	.	8g\J	.
.	32cc/Jkk	.	.
=75	=75	=75	=75
8FF'/	2b-/	8r	.
(8F\L	.	(8d\	.
8B-\ 8d\	.	4f\)	.
8F\	.	.	.
8A\ 8c\	(16dd/LL	4f\	.
.	16cc/	.	.
8F\J)	16b-/	.	.
.	16cc/JJ)	.	.
=76	=76	=76	=76
*^	*	*	*
(8A/L	4.BB-\	8.cc/L	[4f\	.
8F/	.	.	.	.
.	.	16cc#/Jk	.	.
8B-/J)	.	8dd/	8f\]	.
4.r	(8D\L	4.r	8r	.
.	8E-\	.	32r	.
.	.	.	32f'\LLL	<
.	.	.	32g'\	.
.	.	.	32a'\	.
.	8C\J)	.	32b-'\	.
.	.	.	32ccn\	.
.	.	.	32dd'\	.
.	.	.	32ee-'\JJJ	.
*v	*v	*	*	*
=77	=77	=77	=77
8BB-'/	[4ff/	8.r	p
*clefG2	*	*	*
(8B-/L	.	.	.
.	.	16a\	.
8d/ 8f/	(8..ff/L]	2b-\	.
8B-/	.	.	.
.	32dd/Jkk	.	.
8e-/ 8g/	8..bb-/L)	.	.
8B-/J)	.	.	.
.	32gg/Jkk	.	.
=78	=78	=78	=78
(8d/ 8f/L	[4ff/	8.r	.
8B-/	.	.	.
.	.	(16a\	.
8d/ 8f/	8..ff/L]	4b-\)	.
8B-/J)	.	.	.
.	&((32dd/Jkk&)	.	.
*clefF4	*	*	*
(8G\L	16ff/LK	8b-\L	.
.	8ee-/	.	.
8E-\J)	.	8g\J)	.
.	&(16cc/Jk&)	.	.
=79	=79	=79	=79
2F\	2b-/	(8d\L	.
.	.	8B-\ 8d\	<
.	.	8d\ 8f\	.
.	.	8B-\ 8d\J	.
*	*v	*v	*
*	*clefF4	*clefF4
*	*^	*
4FFF/ 4FF/	4f/	8A\ 8c\L	.
.	.	8F\) 8A\J	.
=80	=80	=80	=80
8BBB-/	8d/	8F\ 8B-\	p
16r	8r	8r	pp
(48BB-/LLL	.	.	.
48BBB-/	.	.	.
48BB-/JJJ	.	.	.
8BBB-'/)	4r	4r	.
16r	.	.	.
(48BB-/LLL	.	.	.
48BBB-/	.	.	.
48BB-/JJJ	.	.	.
8BBB-'/)	8r	4r	.
8r	8B-/	.	.
=81	=81	=81	=81
8r	(4B-/	4r	.
16r	.	.	.
48BB-/LLL	.	.	.
48BBB-/	.	.	.
48BB-/JJJ	.	.	.
8BBB-'/	4.c-/)	2D\ 2F\ 2A-\	.
16r	.	.	.
48BB-/LLL	.	.	.
48BBB-/	.	.	.
48BB-/JJJ	.	.	.
8BBB-'/	.	.	.
8r	8c-/	.	.
=82	=82	=82	=82
8r	(4c-/	4r	.
16r	.	.	.
48BB-/LLL	.	.	.
48BBB-/	.	.	.
48BB-/JJJ	.	.	.
8BBB-'/	&(4.d/&))	2F\ 2A-\ 2c-\	.
16r	.	.	.
(48BB-/LLL	.	.	.
48BBB-/	.	.	.
48BB-/JJJ	.	.	.
8BBB-'/)	.	.	.
8r	8d/	.	.
*	*v	*v	*
*	*clefG2	*clefG2
=83	=83	=83
8r	([4d/	.
16r	.	.
(48BB-/LLL	.	.
48BBB-/	.	.
48BB-/JJJ	.	.
8BBB-'/)	4A-/ 4c-/ 4d/] 4f/	.
16r	.	.
48BB-/LLL	.	.
48BBB-/	.	.
48BB-/JJJ	.	.
8BBB-'/	4c-/ 4d/ 4f/ 4a-/)	.
16r	.	.
48BB-/LLL	.	.
48BBB-/	.	.
48BB-/JJJ	.	.
=84	=84	=84
*	*^	*
8BBB-'/	(2cc-/	4r	>
16r	.	.	.
(48A-\LLL	.	.	.
48BB-\	.	.	.
48A-\JJJ)	.	.	.
8BB-'/	.	4d\ 4f\ 4a-\	.
16r	.	.	.
(48A-\LLL	.	.	.
48BB-\	.	.	.
48A-\JJJ)	.	.	.
8BB-'/	8b-/L	4d\ 4f\	.
8r	8a-/J)	.	.
=85	=85	=85	=85
8r	(4f#/	4r	p
16r	.	.	.
(48BB-/LLL	.	.	.
48BBB-/	.	.	.
48BB-/JJJ	.	.	.
8BBB-'/)	4.g/)	2B-\ 2e-\	.
16r	.	.	.
48BB-/LLL	.	.	.
48BBB-/	.	.	.
48BB-/JJJ	.	.	.
8BBB-'/	.	.	.
8r	8b-/	.	.
=86	=86	=86	=86
8r	(2ee-/	4r	.
16r	.	.	.
(48B-\LLL	.	.	.
48BB-\	.	.	.
48B-\JJJ)	.	.	.
8BB-'/	.	[4e-\ [4g-\ 4an\	>
16r	.	.	.
(48B-\LLL	.	.	.
48BB-\	.	.	.
48B-\JJJ)	.	.	.
8BB-'/	8a/ 8cc/L	4e-\] &(4g-\]&)	.
8r	8a/J)	.	.
=87	=87	=87	=87
8r	(4cc/	4r	p
16r	.	.	.
48BB-/LLL	.	.	.
48BBB-/	.	.	.
48BB-/JJJ	.	.	.
8BBB-'/	[4b-/)	4d\ 4f\	.
16r	.	.	.
48BB-/LLL	.	.	.
48BBB-/	.	.	.
48BB-/JJJ	.	.	.
8BBB-'/	(8b-/L]	4f\ 4a-\	.
8r	8dd/J)	.	.
=88	=88	=88	=88
8r	(8ff/	4r	.
16r	4.ee-/	.	.
(48B-\LLL	.	.	.
48BB-\	.	.	.
48B-\JJJ)	.	.	.
8BB-'/	.	8g\ 8b-\L	.
16r	.	[8g-\ [8an\J	.
(48B-\LLL	.	.	.
48BB-\	.	.	.
48B-\JJJ)	.	.	.
8BB-'/	8cc/L	8e-\ 8g-\] 8a\L]	.
16r	8a/J	&(8c\&) 8e-\ 8g-\J)	.
(48B-\LLL	.	.	.
48BB-\	.	.	.
48B-\JJJ)	.	.	.
*	*v	*v	*
=89	=89	=89
*^	*	*
8..BB-/ (8..D/L	2BB-\	8d/ 8f/ 8b-/	.
.	.	8r	.
32C/ 32E-/Jkk	.	.	.
4D/ 4F/	.	4r	.
4C/ 4E-/)	4r	32r	.
.	.	32f'/LLL	.
.	.	32en'/	.
.	.	32f'/	.
.	.	32g'/	.
.	.	32a'/	.
.	.	32b-'/	.
.	.	32cc'/JJJ	.
*v	*v	*	*
=90	=90	=90
*	*^	*
8BB-/ 8D/	8..b-/ (8..dd/L	2f\	.
8r	.	.	.
.	32cc/ 32ee-/Jkk	.	.
4r	4dd/ 4ff/	.	.
32r	4cc/ 4ee-/)	4f\	.
32F'\LLL	.	.	.
32En'\	.	.	.
32F'\	.	.	.
32G'\	.	.	.
32A'\	.	.	.
32B-'\	.	.	.
32c'\JJJ	.	.	.
=91	=91	=91	=91
8..B-\ (8..d\L	8b-/ 8dd/	8f\	<
.	8r	8r	.
32c\ 32e-\Jkk	.	.	.
4d\ 4f\)	4r	4r	.
(4BBB-/	4r	4r	p
*	*v	*v	*
=92	=92	=92
2.AAA/)	2.r	.
=93	=93	=93
4r	([8ccc\L	.
.	16.ccc\L]	.
.	32ddd\JJk	.
4r	4eee-\)	.
4B-\ 4c\ 4e-\	(4g-/	.
=94	=94	=94
2.A\ 2.e-\	2.f/)	.
=95	=95	=95
.	(gnq\LLL	.
.	fq\	.
.	enq\	.
.	fq\	.
.	gq\	.
.	aq\	.
.	b-q\	.
.	ccq\	.
.	ddq\	.
.	ee-q\	.
.	ffq\	.
.	ggq\	.
.	aaq\	.
.	bb-q\JJJ)	.
4r	([8ccc\L	.
.	16.ccc\L]	.
.	32ddd\JJk	.
4r	4eee-\)	.
4F#\ 4c\ 4e-\	4a\ 4cc\ (4ee-\	.
=96	=96	=96
*	*^	*
8G\ 8B-\ 8d\	4r	&(8b-\&) 8dd\)	.
8r	.	8r	.
8r	2gg/	4r	.
8En'\ 8B-'\ 8d-'\	.	.	.
4r	.	8g'\ 8b-'\ 8dd-'\	.
.	.	8r	.
=97	=97	=97	=97
8r	2ff/	4r	p
8F'\ 8B-'\ 8dn'\	.	.	.
8r	.	8f'\ 8b-'\ 8ddn'\	.
8FFF'/ 8FF'/	.	8r	.
8r	4r	8c'/ 8e-'/ 8a'/	.
8FF'/ 8F'/	.	8r	.
*	*v	*v	*
=98	=98	=98
2.BBB-/ 2.BB-/	8B-'/ 8d'/ 8b-'/	.
.	(8f/ 8ff/L	.
.	8d/ 8dd/	.
.	8c-/ 8cc-/	.
.	8B-/ 8b-/	.
.	8A-/) 8a-/J	.
=99	=99	=99
2.BBB-\ 2.BB-\	8G/ (8g/L	.
.	8B-/ 8b-/	.
.	8E-/ 8e-/	.
.	8G/ 8g/	.
.	8AA/ 8c/	.
.	16F/ 16f/L	.
.	16E-/ 16e-/JJ)	.
=100	=100	=100
*^	*	*
8D/ 8d/	2.BB-\	4.r	.
8f/L	.	.	.
8d/	.	.	.
8c-/	.	4dd\	<
8B-/	.	.	.
8A-/J	.	(8dd\	.
=101	=101	=101	=101
8G/L	2.BB-\	8ff\L	.
8B-/	.	8ee-\J)	.
8E-/	.	8r	.
8G/J	.	(4ee-\	.
8C/L	.	.	.
16F/L	.	8a\	.
&(16E-/JJ&)	.	.	.
=102	=102	=102	=102
(8D/L	4BB-\	8b-'\)	.
16F/L	.	16r	.
16E-/JJ)	.	(16a\	.
(8D/L	4BB-\	8b-'\)	.
16F/L	.	16r	.
16E-/JJ)	.	16a\ (16cc\	.
(8D/L	4BB-\	8b-'\ 8dd'\)	.
16F/L	.	16r	.
16E-/JJ)	.	16cc\ 16aa\	.
=103	=103	=103	=103
8D/	8BB-\	8dd\ (8bb-\L	<
8r	8r	16.ddd\L	.
.	.	32ccc\JJk)	.
4r	4r	(4ccc\	.
4r	8r	8bb-\)	p
.	8BBB-/	8r	p
*v	*v	*	*
==	==	==
*-	*-	*-
!!!ENC: Craig Stuart Sapp
!!!END: 2008/10/30/
